!!!COM: John Williams
!!!OTL: The Force Theme
!!!GAW: Star Wars: Episode IV: A New Hope
!!!ODT: 1977
!!!OCL: Frank Lehman
!!!ENC: Claire Arthur
!!!ENC2: John McNamara
**kern	**harte	**harm	**cadence
*clefG2	*	*	*
*k[b-e-]	*k[b-e-]	*k[b-e-]	*
*g:	*g:	*g:	*
*M4/4	*M4/4	*M4/4	*
*MM64	*MM64	*MM64	*
4d	.	.	.
=1	=1	=1	=1
2g	G:min	i	.
4.a	.	.	.
16b-LL	.	.	.
16ccJJ	.	.	.
=2	=2	=2	=2
2b-	G:min	.	.
4.d	.	.	.
8d	.	.	.
=3	=3	=3	=3
4.g	G:min	.	.
8a	.	.	.
8b-L	.	.	.
8dJ	.	.	.
12b-L	G:min/m7	i7d	.
12g	.	.	.
12ddJ	.	.	.
=4	=4	=4	=4
2.cc	C/3	IVb3	HC
.	C	.	.
4d	D	V	//
=5	=5	=5	=5
4.g	G:min	i	.
8a	.	.	.
8.b-L	.	.	.
16gJk	.	.	.
8.ddL	G:min/m7	i7d	.
16b-Jk	.	.	.
=6	=6	=6	=6
2gg	Eb	VI	.
4g	.	.	.
12b-L	.	.	.
12a	.	.	.
12gJ	.	.	.
=7	=7	=7	=7
[4dd	G:min/5	C64	.
12ddL]	.	.	.
12b-	.	.	.
12gJ	.	.	.
4d	D	V7	.
4d	.	.	.
=8	=8	=8	=8
1g	G:min	i	]]
=	=	=	=
*-	*-	*-	*-
